svg/material-icons/phone_locked/materialiconstwotone/20px.svg

<svg xmlns="http://www.w3.org/2000/svg" width="20" height="20" viewBox="0 0 20 20"><path d="M4.55 4.5h1.87l.35 1.57-1.46 1.45c-.37-.95-.63-1.97-.76-3.02zM15.5 15.45c-1.05-.13-2.07-.39-3.02-.76l1.46-1.46 1.57.35v1.87z" opacity=".3"/><path d="m16.22 12.2-2.23-.49c-.29-.06-.65 0-.92.27l-2.08 2a12.53 12.53 0 0 1-5-5l2.04-2.04c.24-.25.34-.6.27-.93l-.5-2.23C7.7 3.33 7.29 3 6.83 3H4c-.59 0-1.04.51-1 1.1.53 6.85 6.04 12.36 12.9 12.9.41.03 1.1-.25 1.1-1v-2.82c0-.47-.33-.88-.78-.98zM4.55 4.5h1.87l.35 1.57-1.46 1.45c-.37-.95-.63-1.97-.76-3.02zM15.5 15.45c-1.05-.13-2.07-.39-3.02-.76l1.46-1.46 1.57.35v1.87zM16.5 5H16V4c0-.82-.67-1.5-1.5-1.5S13 3.18 13 4v1h-.5c-.28 0-.5.22-.5.5v3c0 .28.22.5.5.5h4c.28 0 .5-.22.5-.5v-3c0-.28-.22-.5-.5-.5zm-2.75-1c0-.41.34-.75.75-.75s.75.34.75.75v1h-1.5V4z"/></svg>

<svg xmlns="http://www.w3.org/2000/svg" enable-background="new 0 0 20 20" height="20" viewBox="0 0 20 20" width="20"><rect fill="none" height="20" width="20"/><path d="M4.55,4.5h1.87l0.35,1.57L5.31,7.52C4.94,6.57,4.68,5.55,4.55,4.5z M15.5,15.45 c-1.05-0.13-2.07-0.39-3.02-0.76l1.46-1.46l1.57,0.35V15.45z" opacity=".3"/><path d="M16.22,12.2l-2.23-0.49c-0.29-0.06-0.65,0-0.92,0.27l-2.08,2c-2.11-1.15-3.85-2.89-5-5l2.04-2.04 C8.27,6.69,8.37,6.34,8.3,6.01L7.8,3.78C7.7,3.33,7.29,3,6.83,3L4,3C3.41,3,2.96,3.51,3,4.1C3.53,10.95,9.04,16.46,15.9,17 c0.41,0.03,1.1-0.25,1.1-1v-2.82C17,12.71,16.67,12.3,16.22,12.2z M4.55,4.5h1.87l0.35,1.57L5.31,7.52C4.94,6.57,4.68,5.55,4.55,4.5 z M15.5,15.45c-1.05-0.13-2.07-0.39-3.02-0.76l1.46-1.46l1.57,0.35V15.45z M16.5,5H16V4c0-0.82-0.67-1.5-1.5-1.5S13,3.18,13,4v1 h-0.5C12.22,5,12,5.22,12,5.5v3C12,8.78,12.22,9,12.5,9h4C16.78,9,17,8.78,17,8.5v-3C17,5.22,16.78,5,16.5,5z M13.75,4 c0-0.41,0.34-0.75,0.75-0.75c0.41,0,0.75,0.34,0.75,0.75v1h-1.5V4z"/></svg>
